X:18251
T:Varg Timmen - schottische/schottisch/scottish
C:Anders Stake
D:transkription nach CD "Tr"
G:Hedningarna
Z:abc transcription Simon Wascher
N:please mail errors to: simon.wascher@chello.at
M:2/4
L:1/16
K:Dm
DEFD E2E2|DEFD E2E2|DEFG A2GF|EFE2D4|
DEFD E2E2|DEFD E2E2|DEFG A2GF|EFE2 D2D2:|
|:cAcA c2A B-|B GBG B2G2|cAc d- d cB2|ABcd d2d2|
dcB A- A F3|cBA G- G E3|DEFG A2GF|EFE2D4:|
